!!!OTL: 1889. Reigenspiel.
!!!ODT: 1857
!!!ARE: Europa, Mitteleuropa, Deutschland, Weissenfels
!!!SCT: E1889
!!!TXL: @@DE
!!!YEM: Copyright 1995, estate of Helmut Schaffrath.
**kern	**text
*ICvox	*
*M2/4	*
*k[f#]	*
*G:	*
!LO:TX:a:t=Chor.	!
!LO:TX:a:t=Gegend von Weißenfels 1857.	!
{8dd	Jm
=1	=1
4dd	Som-
8b	-mer,
8dd	im
=2	=2
4dd	Som-
8b}	-mer
{8dd	da
=3	=3
8cc	iſt
8cc	die
8a	ſchön-
8cc	-ſie
=4	=4
4b	Ʒeit;
8r}	.
{8dd	Da
=5	=5
4dd	freu-
8b	-en,
8dd	da
=6	=6
4dd	freu-
8b}	-en
{8dd	ſich
=7	=7
8cc	al-
8cc	-le
8a	jun-
8cc	-gen
=8	=8
4b	Leut.
8r}	.
{8b	Und
=9	=9
8a	wer
8cc	in
8cc	die-
8cc	-ſem
=10	=10
8b	Krei-
8dd	-ſe
8dd}	ſteht,
{8dd	der
=11	=11
8dd	mach
8dd	es
8cc	ſo
8a	wie
=12	=12
8g	ich
8g	und
8g}	du.
!LO:TX:a:t=Solo, dann Chor.	!
{8dd	Das
=13	=13
4dd	La-
8b	-chen,
8dd	das
=14	=14
4dd	La-
8b}	-chen,
{8dd	das
=15	=15
8cc	kann
8cc	nicht
8a	ſchö-
8a	-ner
=16	=16
4g	ſein
8r}	.
{8dd	Drum
=17	=17
4dd	will
8b	ich,
8dd	drum
=18	=18
4dd	will
8b}	ich
{8dd	mich
=19	=19
8cc	ein-
8cc	-mal
8a	ſchnell
8a	um-
=20	=20
4g	-drehn.
8r}	.
==	==
!!!AGN: Kinder - Lied, Spiel, Reigen
!!!ONB: ESAC (Essen Associative Code) Database: ERK3
!!!AMT: simple duple
!!!AIN: vox
!!!EED: Helmut Schaffrath
!!!EEV: 1.0
!!!GTL: Einige Kinderlieder. d) Spiel- und Tanzliedchen.
!!!URL-scan: https://rosdok.uni-rostock.de/mcrviewer/recordIdentifier/rosdok_ppn745177999/iview2/phys_0614.iview2?x=186.1168421123782&y=1942.4194877967238&scale=0.7014306698522895&rotation=0&layout=singlePageLayout
!!!ENC: Anna Maria Matuszewska
!!!EEV: 2025/09/01
*-	*-
